X:5
T:Alexander Brodie
R:Reel
B:The Athole Collection
M:C|
L:1/8
K:D
f|gefd edcA|gefd B2Bf|gefd edcA|dBAF D2D:|
F|DFAF BGAF|dBAF E/E/E EF|DFAF BGAc|
d/c/B/A/ dF D/D/D DF|DFAF BGAF|dGAF E2Eg|
afge fdec|dBAF D2D||

